X: 3482
T: Bhruacha Na Cambria
R: polka
M: 2/4
K: Amixolydian
|:A3 B|cB A2|e2 B2|c2 B2|1 A3 B|cB A2|G2 d2|FE D2:|2 G2 d2|FE D2|E2 A2|A4:|
|:c2 e2|e2 c2|f2 e2|cB A2|1 G2 d2|FE D2|G2 d2|FE D2:|2 G2 d2|FE D2|E2 A2|A4:|

